Newaita-dark/mimetypes/16/application-x-java.svg

<?xml version="1.0" encoding="UTF-8"?>
<svg xmlns="http://www.w3.org/2000/svg" xmlns:xlink="http://www.w3.org/1999/xlink" width="16px" height="16px" viewBox="0 0 16 16" version="1.1">
<defs>
<linearGradient id="linear0" gradientUnits="userSpaceOnUse" x1="254" y1="233.5" x2="254" y2="254.666672" gradientTransform="matrix(0.031253,0,0,0.031253,0.33076,6.719393)">
<stop offset="0" style="stop-color:rgb(0%,0%,0%);stop-opacity:0.27451;"/>
<stop offset="1" style="stop-color:rgb(0%,0%,0%);stop-opacity:0;"/>
</linearGradient>
<radialGradient id="radial0" gradientUnits="userSpaceOnUse" cx="450.908936" cy="189.579361" fx="450.908936" fy="189.579361" r="21.166656" gradientTransform="matrix(0.0000000870852,-0.0390662,-0.0703192,-0.0000000507693,24.742285,31.797666)">
<stop offset="0" style="stop-color:rgb(0%,0%,0%);stop-opacity:0.313726;"/>
<stop offset="0.222222" style="stop-color:rgb(0%,0%,0%);stop-opacity:0.27451;"/>
<stop offset="1" style="stop-color:rgb(0%,0%,0%);stop-opacity:0;"/>
</radialGradient>
<radialGradient id="radial1" gradientUnits="userSpaceOnUse" cx="450.908936" cy="189.579361" fx="450.908936" fy="189.579361" r="21.166656" gradientTransform="matrix(-0.0000000870852,0.0390662,0.0703192,0.0000000507693,-9.196524,-3.763739)">
<stop offset="0" style="stop-color:rgb(0%,0%,0%);stop-opacity:0.313726;"/>
<stop offset="0.222222" style="stop-color:rgb(0%,0%,0%);stop-opacity:0.27451;"/>
<stop offset="1" style="stop-color:rgb(0%,0%,0%);stop-opacity:0;"/>
</radialGradient>
<radialGradient id="radial2" gradientUnits="userSpaceOnUse" cx="450.908936" cy="189.579361" fx="450.908936" fy="189.579361" r="21.166656" gradientTransform="matrix(-0.0000000870852,-0.0390662,0.0703192,-0.0000000507693,-9.196524,31.797666)">
<stop offset="0" style="stop-color:rgb(0%,0%,0%);stop-opacity:0.313726;"/>
<stop offset="0.222222" style="stop-color:rgb(0%,0%,0%);stop-opacity:0.27451;"/>
<stop offset="1" style="stop-color:rgb(0%,0%,0%);stop-opacity:0;"/>
</radialGradient>
<radialGradient id="radial3" gradientUnits="userSpaceOnUse" cx="450.908936" cy="189.579361" fx="450.908936" fy="189.579361" r="21.166656" gradientTransform="matrix(0.0000000870852,0.0390662,-0.0703192,0.0000000507693,24.742284,-3.76374)">
<stop offset="0" style="stop-color:rgb(0%,0%,0%);stop-opacity:0.313726;"/>
<stop offset="0.222222" style="stop-color:rgb(0%,0%,0%);stop-opacity:0.27451;"/>
<stop offset="1" style="stop-color:rgb(0%,0%,0%);stop-opacity:0;"/>
</radialGradient>
<linearGradient id="linear1" gradientUnits="userSpaceOnUse" x1="940" y1="1695.118164" x2="940" y2="175.118118" gradientTransform="matrix(0.00826902,0,0,0.00826902,0,0)">
<stop offset="0" style="stop-color:rgb(100%,67.058825%,56.862748%);stop-opacity:1;"/>
<stop offset="1" style="stop-color:rgb(100%,80.000001%,73.725492%);stop-opacity:1;"/>
</linearGradient>
<linearGradient id="linear2" gradientUnits="userSpaceOnUse" x1="249.189423" y1="233.5" x2="249.189423" y2="254.666687" gradientTransform="matrix(0.0149471,0,0,0.0546927,7.521212,-8.180455)">
<stop offset="0" style="stop-color:rgb(0%,0%,0%);stop-opacity:0.27451;"/>
<stop offset="1" style="stop-color:rgb(0%,0%,0%);stop-opacity:0;"/>
</linearGradient>
<linearGradient id="linear3" gradientUnits="userSpaceOnUse" x1="338.666656" y1="233.5" x2="338.666656" y2="-168.666672" gradientTransform="matrix(0.031253,0,0,0.031253,0,6.719392)">
<stop offset="0" style="stop-color:rgb(100%,43.921569%,26.274511%);stop-opacity:1;"/>
<stop offset="1" style="stop-color:rgb(100%,54.11765%,39.607844%);stop-opacity:1;"/>
</linearGradient>
<linearGradient id="linear4" gradientUnits="userSpaceOnUse" x1="940" y1="1695.118164" x2="940" y2="175.118118" gradientTransform="matrix(0.264583,0,0,0.264583,-15.875001,-215)">
<stop offset="0" style="stop-color:rgb(100%,43.921569%,26.274511%);stop-opacity:1;"/>
<stop offset="1" style="stop-color:rgb(100%,54.11765%,39.607844%);stop-opacity:1;"/>
</linearGradient>
<linearGradient id="linear5" gradientUnits="userSpaceOnUse" x1="246.0625" y1="244.083328" x2="246.0625" y2="-158.083344" >
<stop offset="0" style="stop-color:rgb(100%,43.921569%,26.274511%);stop-opacity:1;"/>
<stop offset="1" style="stop-color:rgb(100%,54.11765%,39.607844%);stop-opacity:1;"/>
</linearGradient>
<linearGradient id="linear6" gradientUnits="userSpaceOnUse" x1="246.0625" y1="244.083328" x2="246.0625" y2="-158.083328" >
<stop offset="0" style="stop-color:rgb(100%,43.921569%,26.274511%);stop-opacity:1;"/>
<stop offset="1" style="stop-color:rgb(100%,54.11765%,39.607844%);stop-opacity:1;"/>
</linearGradient>
</defs>
<g id="surface1">
<path style=" stroke:none;fill-rule:nonzero;fill:url(#linear0);" d="M 3.96875 14.015625 L 11.578125 14.015625 L 11.578125 14.679688 L 3.96875 14.679688 Z M 3.96875 14.015625 "/>
<path style=" stroke:none;fill-rule:nonzero;fill:url(#radial0);" d="M 11.578125 14.015625 L 12.898438 14.015625 L 12.898438 13.355469 L 11.578125 13.355469 Z M 11.578125 14.015625 "/>
<path style=" stroke:none;fill-rule:nonzero;fill:url(#radial1);" d="M 3.96875 14.015625 L 2.644531 14.015625 L 2.644531 14.679688 L 3.96875 14.679688 Z M 3.96875 14.015625 "/>
<path style=" stroke:none;fill-rule:nonzero;fill:url(#radial2);" d="M 3.96875 14.015625 L 2.644531 14.015625 L 2.644531 13.355469 L 3.96875 13.355469 Z M 3.96875 14.015625 "/>
<path style=" stroke:none;fill-rule:nonzero;fill:url(#radial3);" d="M 11.578125 14.015625 L 12.898438 14.015625 L 12.898438 14.679688 L 11.578125 14.679688 Z M 11.578125 14.015625 "/>
<path style=" stroke:none;fill-rule:nonzero;fill:url(#linear1);" d="M 9.269531 1.449219 L 3.308594 1.449219 C 2.941406 1.449219 2.644531 1.742188 2.644531 2.109375 L 2.644531 13.355469 C 2.644531 13.722656 2.941406 14.015625 3.308594 14.015625 L 12.238281 14.015625 C 12.605469 14.015625 12.898438 13.722656 12.898438 13.355469 L 12.898438 5.078125 Z M 9.269531 1.449219 "/>
<path style=" stroke:none;fill-rule:nonzero;fill:url(#linear2);" d="M 9.261719 4.589844 L 12.402344 4.589844 L 12.898438 5.085938 L 12.898438 5.746094 L 9.261719 5.746094 Z M 9.261719 4.589844 "/>
<path style=" stroke:none;fill-rule:nonzero;fill:rgb(0%,0%,0%);fill-opacity:0.235294;" d="M 2.644531 13.097656 L 2.644531 13.355469 C 2.644531 13.722656 2.941406 14.015625 3.308594 14.015625 L 12.238281 14.015625 C 12.605469 14.015625 12.898438 13.722656 12.898438 13.355469 L 12.898438 13.097656 C 12.898438 13.464844 12.605469 13.761719 12.238281 13.761719 L 3.308594 13.761719 C 2.941406 13.761719 2.644531 13.464844 2.644531 13.097656 Z M 2.644531 13.097656 "/>
<path style=" stroke:none;fill-rule:nonzero;fill:rgb(100%,100%,100%);fill-opacity:0.392157;" d="M 3.308594 1.449219 C 2.941406 1.449219 2.644531 1.742188 2.644531 2.109375 L 2.644531 2.359375 C 2.644531 1.992188 2.941406 1.695312 3.308594 1.695312 L 9.269531 1.695312 L 12.898438 5.324219 L 12.898438 5.078125 L 9.269531 1.449219 Z M 3.308594 1.449219 "/>
<path style=" stroke:none;fill-rule:nonzero;fill:url(#linear3);" d="M 12.898438 5.078125 L 9.269531 1.449219 L 9.269531 4.414062 C 9.269531 4.78125 9.566406 5.078125 9.933594 5.078125 Z M 12.898438 5.078125 "/>
<path style=" stroke:none;fill-rule:nonzero;fill:rgb(0%,0%,0%);fill-opacity:0.235294;" d="M 9.269531 4.257812 L 9.269531 4.414062 C 9.269531 4.78125 9.566406 5.078125 9.933594 5.078125 L 12.898438 5.078125 L 12.742188 4.921875 L 9.933594 4.921875 C 9.566406 4.921875 9.269531 4.625 9.269531 4.257812 Z M 9.269531 4.257812 "/>
<path style=" stroke:none;fill-rule:nonzero;fill:rgb(100%,100%,100%);fill-opacity:0.392157;" d="M 9.269531 1.449219 L 9.269531 1.695312 L 12.652344 5.078125 L 12.898438 5.078125 Z M 9.269531 1.449219 "/>
<path style=" stroke:none;fill-rule:nonzero;fill:rgb(12.941177%,12.941177%,12.941177%);fill-opacity:1;" d="M 9.269531 1.402344 C 9.246094 1.402344 9.222656 1.421875 9.222656 1.449219 L 9.222656 4.414062 C 9.222656 4.808594 9.539062 5.125 9.933594 5.125 L 12.898438 5.125 C 12.917969 5.125 12.9375 5.113281 12.941406 5.09375 C 12.949219 5.078125 12.945312 5.058594 12.933594 5.042969 L 9.304688 1.414062 C 9.296875 1.40625 9.28125 1.402344 9.269531 1.402344 Z M 9.316406 1.5625 L 12.785156 5.03125 L 9.933594 5.03125 C 9.589844 5.03125 9.316406 4.757812 9.316406 4.414062 Z M 9.316406 1.5625 "/>
<path style=" stroke:none;fill-rule:nonzero;fill:rgb(12.941177%,12.941177%,12.941177%);fill-opacity:1;" d="M 3.308594 1.402344 C 2.914062 1.402344 2.597656 1.71875 2.597656 2.109375 L 2.597656 13.355469 C 2.597656 13.746094 2.914062 14.0625 3.308594 14.0625 L 12.238281 14.0625 C 12.628906 14.0625 12.945312 13.746094 12.945312 13.355469 L 12.945312 5.078125 C 12.945312 5.0625 12.941406 5.050781 12.933594 5.042969 L 9.304688 1.414062 C 9.296875 1.40625 9.285156 1.402344 9.269531 1.402344 Z M 3.308594 1.496094 L 9.25 1.496094 L 12.851562 5.097656 L 12.851562 13.355469 C 12.851562 13.695312 12.578125 13.96875 12.238281 13.96875 L 3.308594 13.96875 C 2.964844 13.96875 2.691406 13.695312 2.691406 13.355469 L 2.691406 2.109375 C 2.691406 1.769531 2.964844 1.496094 3.308594 1.496094 Z M 3.308594 1.496094 "/>
<path style="fill-rule:nonzero;fill:url(#linear4);stroke-width:3;stroke-linecap:round;stroke-linejoin:round;stroke:rgb(12.941177%,12.941177%,12.941177%);stroke-opacity:1;stroke-miterlimit:4;" d="M 179.857824 32.476367 C 176.983099 32.476367 174.608326 34.726152 174.608326 37.725866 L 174.608326 80.09682 C 174.608326 100.594862 200.605843 117.093287 232.852764 117.093287 C 262.224959 117.093287 286.472643 103.3446 290.472261 85.346318 L 306.970686 85.346318 C 315.71985 85.346318 322.84417 76.22219 322.84417 64.848276 L 322.84417 58.223908 C 322.84417 46.849995 315.71985 37.725866 306.970686 37.725866 L 291.097202 37.725866 C 291.097202 34.726152 288.722428 32.476367 285.722715 32.476367 Z M 291.097202 53.59935 L 301.596199 53.59935 C 304.595913 53.59935 306.970686 58.348896 306.970686 64.223336 C 306.970686 69.972786 304.595913 74.722333 301.596199 74.722333 L 291.097202 74.722333 Z M 291.097202 53.59935 " transform="matrix(0.031253,0,0,0.031253,0,6.719392)"/>
<path style="fill-rule:nonzero;fill:url(#linear5);stroke-width:3;stroke-linecap:butt;stroke-linejoin:miter;stroke:rgb(12.941177%,12.941177%,12.941177%);stroke-opacity:1;stroke-miterlimit:4;" d="M 227.583694 32.435712 C 227.583694 32.435712 207.585604 22.686643 216.709733 7.313111 C 223.209112 -3.935815 227.583694 -20.559227 227.583694 -20.559227 C 227.583694 -20.559227 248.706677 -9.935242 233.708109 13.937478 C 227.458706 23.936524 227.583694 32.435712 227.583694 32.435712 Z M 227.583694 32.435712 " transform="matrix(0.031253,0,0,0.031253,-0.413451,6.388631)"/>
<path style="fill-rule:nonzero;fill:url(#linear6);stroke-width:3;stroke-linecap:butt;stroke-linejoin:miter;stroke:rgb(12.941177%,12.941177%,12.941177%);stroke-opacity:1;stroke-miterlimit:4;" d="M 264.580161 32.435712 C 264.580161 32.435712 242.582262 22.436667 253.7062 7.313111 C 256.705913 3.313493 264.580161 -4.685743 264.580161 -4.685743 C 264.580161 -4.685743 275.204147 3.313493 270.704576 13.937478 C 265.080114 27.311201 264.580161 32.435712 264.580161 32.435712 Z M 264.580161 32.435712 " transform="matrix(0.031253,0,0,0.031253,-0.413451,6.388631)"/>
</g>
</svg>

<svg height="16pt" viewBox="0 0 16 16" width="16pt" xmlns="http://www.w3.org/2000/svg" xmlns:xlink="http://www.w3.org/1999/xlink"><linearGradient id="a"><stop offset="0" stop-opacity=".275"/><stop offset="1" stop-opacity="0"/></linearGradient><linearGradient id="b" gradientUnits="userSpaceOnUse" x1="8.2675" x2="8.2675" xlink:href="#a" y1="14.016875" y2="14.67834375"/><linearGradient id="c"><stop offset="0" stop-opacity=".314"/><stop offset=".222" stop-opacity=".275"/><stop offset="1" stop-opacity="0"/></linearGradient><radialGradient id="d" cx="450.909" cy="189.579" gradientTransform="matrix(0 -.03907 -.07032 0 24.742 31.798)" gradientUnits="userSpaceOnUse" r="21.167" xlink:href="#c"/><radialGradient id="e" cx="450.909" cy="189.579" gradientTransform="matrix(0 .03907 .07032 0 -9.197 -3.764)" gradientUnits="userSpaceOnUse" r="21.167" xlink:href="#c"/><radialGradient id="f" cx="450.909" cy="189.579" gradientTransform="matrix(0 -.03907 .07032 0 -9.197 31.798)" gradientUnits="userSpaceOnUse" r="21.167" xlink:href="#c"/><radialGradient id="g" cx="450.909" cy="189.579" gradientTransform="matrix(0 .03907 -.07032 0 24.742 -3.764)" gradientUnits="userSpaceOnUse" r="21.167" xlink:href="#c"/><linearGradient id="h" gradientTransform="matrix(.00826902 .0001273 -.0001273 .00826902 0 0)" gradientUnits="userSpaceOnUse" x1="940" x2="940" y1="1695.118" y2="175.118"><stop offset="0" stop-color="#ffab91"/><stop offset="1" stop-color="#ffccbc"/></linearGradient><linearGradient id="i" gradientTransform="matrix(.01495 0 0 .0547 7.521 -8.18)" gradientUnits="userSpaceOnUse" x1="249.189" x2="249.189" xlink:href="#a" y1="233.5" y2="254.667"/><linearGradient id="j"><stop offset="0" stop-color="#ff7043"/><stop offset="1" stop-color="#ff8a65"/></linearGradient><linearGradient id="k" gradientUnits="userSpaceOnUse" x1="10.58334375" x2="10.58334375" xlink:href="#j" y1="14.016875" y2="1.44915625"/><linearGradient id="l" gradientUnits="userSpaceOnUse" x1="232.8302" x2="232.8302" xlink:href="#j" y1="233.49432044" y2="-168.66727956"/><linearGradient id="m" gradientUnits="userSpaceOnUse" x1="246.063" x2="246.063" xlink:href="#j" y1="244.083" y2="-158.083"/><path d="m3.969 14.016h7.61v.664h-7.61zm0 0" fill="url(#b)"/><path d="m11.578 14.016h1.32v-.66h-1.32zm0 0" fill="url(#d)"/><path d="m3.969 14.016h-1.324v.664h1.324zm0 0" fill="url(#e)"/><path d="m3.969 14.016h-1.324v-.66h1.324zm0 0" fill="url(#f)"/><path d="m11.578 14.016h1.32v.664h-1.32zm0 0" fill="url(#g)"/><path d="m9.27 1.45h-5.961a.66.66 0 0 0 -.664.66v11.245c0 .368.296.66.664.66h8.93c.366 0 .66-.292.66-.66v-8.277zm0 0" fill="url(#h)"/><path d="m9.262 4.59h3.14l.496.496v.66h-3.636zm0 0" fill="url(#i)"/><path d="m2.645 13.098v.257c0 .368.296.66.664.66h8.93c.366 0 .66-.292.66-.66v-.257a.66.66 0 0 1 -.66.664h-8.93a.664.664 0 0 1 -.664-.664zm0 0" fill-opacity=".235"/><path d="m3.309 1.45a.66.66 0 0 0 -.664.66v.25c0-.368.296-.665.664-.665h5.96l3.63 3.63v-.247l-3.631-3.628zm0 0" fill="#fff" fill-opacity=".392"/><path d="m12.898 5.078-3.628-3.628v2.965c0 .367.296.664.664.664zm0 0" fill="url(#k)"/><path d="m9.27 4.258v.156c0 .367.296.664.664.664h2.964l-.156-.156h-2.808a.664.664 0 0 1 -.664-.664zm0 0" fill-opacity=".235"/><path d="m9.27 1.45v.245l3.382 3.383h.246zm0 0" fill="#fff" fill-opacity=".392"/><path d="m9.27 1.402a.047.047 0 0 0 -.047.047v2.965c0 .395.316.711.71.711h2.965c.02 0 .04-.012.043-.031.008-.016.004-.035-.007-.051l-3.63-3.629c-.007-.008-.023-.012-.034-.012zm.046.16 3.47 3.47h-2.853a.614.614 0 0 1 -.618-.618zm0 0" fill="#212121"/><path d="m3.309 1.402a.708.708 0 0 0 -.711.707v11.246c0 .391.316.707.71.707h8.93c.39 0 .707-.316.707-.707v-8.277c0-.016-.004-.027-.011-.035l-3.63-3.629c-.007-.008-.019-.012-.034-.012zm0 .094h5.941l3.602 3.602v8.257c0 .34-.274.614-.614.614h-8.93a.613.613 0 0 1 -.617-.614v-11.245c0-.34.274-.613.618-.613zm0 0" fill="#212121"/><g stroke="#212121" stroke-width="3"><path d="m179.858 32.476c-2.875 0-5.25 2.25-5.25 5.25v42.37c0 20.499 25.998 36.997 58.245 36.997 29.372 0 53.62-13.748 57.62-31.747h16.498c8.749 0 15.873-9.124 15.873-20.498v-6.624c0-11.374-7.124-20.498-15.873-20.498h-15.874c0-3-2.375-5.25-5.374-5.25zm111.24 21.124h10.498c3 0 5.375 4.75 5.375 10.624 0 5.75-2.375 10.5-5.375 10.5h-10.499zm0 0" fill="url(#l)" stroke-linecap="round" stroke-linejoin="round" transform="matrix(.03125 0 0 .03125 0 6.72)"/><path d="m227.584 32.436s-19.998-9.75-10.874-25.123c6.5-11.249 10.874-27.872 10.874-27.872s21.123 10.624 6.124 34.496c-6.25 10-6.124 18.499-6.124 18.499zm0 0" fill="url(#m)" transform="matrix(.03125 0 0 .03125 -.413 6.389)"/><path d="m264.58 32.436s-21.998-10-10.874-25.123c3-4 10.874-11.999 10.874-11.999s10.624 8 6.125 18.623c-5.625 13.374-6.125 18.499-6.125 18.499zm0 0" fill="url(#m)" transform="matrix(.03125 0 0 .03125 -.413 6.389)"/></g></svg>
